images/index/delivery-block/delivery-block-strong.svg

<svg width="41" height="40" fill="none" xmlns="http://www.w3.org/2000/svg"><circle cx="20.5" cy="20" r="20" fill="#DCDCDC" fill-opacity=".5"/><g opacity=".3" clip-path="url(#a)" fill="#000"><path d="M21 14h-2v2h2v-2ZM21 18h-2v8h2v-8Z"/></g><defs><clipPath id="a"><path fill="#fff" transform="translate(19 14)" d="M0 0h2v12H0z"/></clipPath></defs></svg>

<svg width="41" height="40" viewBox="0 0 41 40" fill="none" xmlns="http://www.w3.org/2000/svg">
<circle cx="20.5" cy="20" r="20" fill="#DCDCDC" fill-opacity="0.5"/>
<g opacity="0.3" clip-path="url(#clip0_11365_562)">
<path d="M21 14H19V16H21V14Z" fill="black"/>
<path d="M21 18H19V26H21V18Z" fill="black"/>
</g>
<defs>
<clipPath id="clip0_11365_562">
<rect width="2" height="12" fill="white" transform="translate(19 14)"/>
</clipPath>
</defs>
</svg>
